packages/foundations/assets/icons/functional/images/social/heart_32_filled.svg

<svg width="32" height="32" viewBox="0 0 32 32" fill="none" xmlns="http://www.w3.org/2000/svg">
<g clip-path="url(#clip0_2214_6216)">
<path fill-rule="evenodd" clip-rule="evenodd" d="M15.9688 27.875C15.7188 27.875 15.4688 27.7812 15.2812 27.5938L4.1562 16.7812C2.6875 15.375 2 13.4375 2 11.5625C2 7.4062 5.375 4.125 9.375 4.125C11.2812 4.125 13.1875 4.875 14.625 6.3125L15.9688 7.6562L17.3125 6.3125C18.75 4.875 20.6562 4.125 22.5938 4.125C26.6562 4.125 30 7.4062 30 11.5C30 13.375 29.3438 15.2812 27.7812 16.7812L16.6875 27.5938C16.5 27.7812 16.2188 27.875 15.9688 27.875Z" fill="#1A1C1F"/>
</g>
<defs>
<clipPath id="clip0_2214_6216">
<rect width="32" height="32" fill="white"/>
</clipPath>
</defs>
</svg>

<svg xmlns="http://www.w3.org/2000/svg" width="32" height="32" fill="none"><g clip-path="url(#a)"><path fill="#1A1C1F" fill-rule="evenodd" d="M15.969 27.875a.97.97 0 0 1-.688-.281L4.156 16.78C2.688 15.375 2 13.438 2 11.563c0-4.157 3.375-7.438 7.375-7.438 1.906 0 3.813.75 5.25 2.188l1.344 1.343 1.344-1.343a7.45 7.45 0 0 1 5.28-2.188C26.657 4.125 30 7.406 30 11.5c0 1.875-.656 3.781-2.219 5.281L16.688 27.594a1.04 1.04 0 0 1-.72.281" clip-rule="evenodd"/></g><defs><clipPath id="a"><path fill="#fff" d="M0 0h32v32H0z"/></clipPath></defs></svg>
